X:46
T:3 merry Boys,The. JJo3.046
Z:vmp.Ruairidh Greig 2014 www.village-music-project.org.uk
B:J.Johnson Choice Collection Vol 3 1744
T:Barkin's Whim. JJo3.046
T:Three Merry boys,The. JJo3.046
M:6/8
L:1/8
Q:3/8=100
W:Each strain twice
K:G
E2EB2B|efe^d3|edc BAG|A>cB/A/B3|
E2EB2B|efe^d3|gfe ^cde|^c3B3||
b2b bag|f>ag/f/g3|efg fga|dgfg3|
BAG cBA|B>FG/E/^D3E>FG/A/ BFG|F3E3|]

